X: 33811
T: Reaction, The
R: reel
M: 4/4
K: Adorian
|:Aeed ega2|Aeed eeBg|e2Ae edBd|gaga fdBd|
Aeed ega2|Aeed eeBg|e2Ae edBd|gadB GA3:|
|:c3e d2Bd|A3e edBd|cAAA Aedc|BG3 GABd|
c3e d2Bd|A3e edBd|cega e3d|egdc GA3:|

